inst/assets/svg/wi-wind-beaufort-7.svg

<?xml version="1.0" encoding="UTF-8"?>
<svg xmlns="http://www.w3.org/2000/svg" xmlns:xlink="http://www.w3.org/1999/xlink" width="30pt" height="30pt" viewBox="0 0 30 30" version="1.1">
<g id="surface1076">
<path style=" stroke:none;fill-rule:nonzero;fill:rgb(0%,0%,0%);fill-opacity:1;" d="M 4.828125 13.5 C 4.828125 13.679688 4.890625 13.808594 5 13.898438 C 5.121094 14.011719 5.261719 14.070313 5.421875 14.070313 L 15.820313 14.070313 C 15.988281 14.070313 16.148438 14.128906 16.28125 14.261719 C 16.410156 14.378906 16.480469 14.539063 16.480469 14.71875 C 16.480469 14.898438 16.410156 15.058594 16.28125 15.191406 C 16.148438 15.320313 16 15.390625 15.820313 15.390625 C 15.640625 15.390625 15.480469 15.320313 15.351563 15.179688 C 15.230469 15.070313 15.089844 15.019531 14.949219 15.019531 C 14.789063 15.019531 14.648438 15.070313 14.539063 15.179688 C 14.429688 15.289063 14.378906 15.421875 14.378906 15.570313 C 14.378906 15.730469 14.441406 15.871094 14.550781 15.980469 C 14.910156 16.339844 15.328125 16.511719 15.820313 16.511719 C 16.308594 16.511719 16.730469 16.339844 17.078125 15.988281 C 17.429688 15.640625 17.601563 15.21875 17.601563 14.71875 C 17.601563 14.230469 17.429688 13.800781 17.078125 13.449219 C 16.730469 13.101563 16.308594 12.921875 15.820313 12.921875 L 5.421875 12.921875 C 5.261719 12.921875 5.121094 12.980469 5 13.089844 C 4.890625 13.210938 4.828125 13.339844 4.828125 13.5 Z M 4.828125 11.480469 C 4.828125 11.648438 4.890625 11.78125 5 11.871094 C 5.121094 11.980469 5.261719 12.03125 5.421875 12.03125 L 19.230469 12.03125 C 19.71875 12.03125 20.148438 11.851563 20.5 11.511719 C 20.851563 11.160156 21.019531 10.738281 21.019531 10.238281 C 21.019531 9.75 20.851563 9.328125 20.5 8.980469 C 20.148438 8.628906 19.730469 8.460938 19.230469 8.460938 C 18.738281 8.460938 18.320313 8.628906 17.960938 8.96875 C 17.851563 9.089844 17.800781 9.238281 17.800781 9.390625 C 17.800781 9.550781 17.851563 9.691406 17.960938 9.789063 C 18.070313 9.890625 18.199219 9.941406 18.359375 9.941406 C 18.511719 9.941406 18.648438 9.890625 18.769531 9.78125 C 18.890625 9.660156 19.039063 9.601563 19.21875 9.601563 C 19.390625 9.601563 19.550781 9.660156 19.679688 9.78125 C 19.808594 9.898438 19.878906 10.050781 19.878906 10.230469 C 19.878906 10.410156 19.808594 10.570313 19.679688 10.699219 C 19.550781 10.828125 19.398438 10.898438 19.21875 10.898438 L 5.421875 10.898438 C 5.261719 10.898438 5.121094 10.960938 5 11.070313 C 4.890625 11.179688 4.828125 11.320313 4.828125 11.480469 Z M 18.851563 21.898438 L 21.320313 21.898438 C 21.578125 20.609375 22.050781 19.449219 22.710938 18.429688 C 23.378906 17.410156 24.101563 16.589844 24.871094 15.988281 L 25.25 14.121094 L 19.289063 14.121094 L 18.878906 16.011719 L 22.371094 16.011719 C 20.390625 18 19.21875 19.960938 18.851563 21.898438 Z M 18.851563 21.898438 "/>
</g>
</svg>

<?xml version="1.0" encoding="utf-8"?>
<!-- Generator: Adobe Illustrator 22.0.1, SVG Export Plug-In . SVG Version: 6.00 Build 0)  -->
<svg version="1.1" id="Layer_1" xmlns="http://www.w3.org/2000/svg" xmlns:xlink="http://www.w3.org/1999/xlink" x="0px" y="0px"
	 viewBox="0 0 30 30" style="enable-background:new 0 0 30 30;" xml:space="preserve">
<path d="M4.83,13.5c0,0.18,0.06,0.31,0.17,0.4c0.12,0.11,0.26,0.17,0.42,0.17h10.4c0.17,0,0.33,0.06,0.46,0.19
	c0.13,0.12,0.2,0.28,0.2,0.46s-0.07,0.34-0.2,0.47s-0.28,0.2-0.46,0.2c-0.18,0-0.34-0.07-0.47-0.21c-0.12-0.11-0.26-0.16-0.4-0.16
	c-0.16,0-0.3,0.05-0.41,0.16c-0.11,0.11-0.16,0.24-0.16,0.39c0,0.16,0.06,0.3,0.17,0.41c0.36,0.36,0.78,0.53,1.27,0.53
	s0.91-0.17,1.26-0.52c0.35-0.35,0.52-0.77,0.52-1.27c0-0.49-0.17-0.92-0.52-1.27c-0.35-0.35-0.77-0.53-1.26-0.53H5.42
	c-0.16,0-0.3,0.06-0.42,0.17C4.89,13.21,4.83,13.34,4.83,13.5z M4.83,11.48c0,0.17,0.06,0.3,0.17,0.39
	c0.12,0.11,0.26,0.16,0.42,0.16h13.81c0.49,0,0.92-0.18,1.27-0.52c0.35-0.35,0.52-0.77,0.52-1.27c0-0.49-0.17-0.91-0.52-1.26
	s-0.77-0.52-1.27-0.52c-0.49,0-0.91,0.17-1.27,0.51c-0.11,0.12-0.16,0.27-0.16,0.42c0,0.16,0.05,0.3,0.16,0.4
	c0.11,0.1,0.24,0.15,0.4,0.15c0.15,0,0.29-0.05,0.41-0.16c0.12-0.12,0.27-0.18,0.45-0.18c0.17,0,0.33,0.06,0.46,0.18
	c0.13,0.12,0.2,0.27,0.2,0.45c0,0.18-0.07,0.34-0.2,0.47c-0.13,0.13-0.28,0.2-0.46,0.2H5.42c-0.16,0-0.3,0.06-0.42,0.17
	C4.89,11.18,4.83,11.32,4.83,11.48z M18.85,21.9h2.47c0.26-1.29,0.73-2.45,1.39-3.47c0.67-1.02,1.39-1.84,2.16-2.44l0.38-1.87h-5.96
	l-0.41,1.89h3.49C20.39,18,19.22,19.96,18.85,21.9z"/>
</svg>
